X: 20932
T: Journeys Of A Dreamer
R: reel
M: 4/4
K: Adorian
|:Ja6 {b}ag-|{a}g dJe2{a}(3edB JB2-|B6z2|gJa/{c'}a/ g2{a}g dJe2-|
{a}ed B-B4 A/B/|Jc2B A{B}A4-|A6z2|DJe3{a}edJF2-|
F3/2A/B/{c}B/A/B/A4-|A3zJB2{c}B//A//B/d//{a}d//B//A//|{c}B/A/G-G6-G2zJa3{c'}ag//a//b//a//|
g2{a}gdJe2{a}(3e/d/e/ B-|B6zg|Ja{c'}ag/f/g/a/gdJe2|-d JBA/B/c2B {e}d/c/B/c/|
A8-|A3DJe3-d-|dJF2 A/B/{c}B/A/A3-|A8|
JB3{de}d/B/A/B/{c}B/A/G2-|G6z2|DJE{FE}D3 JB2{c}B|A2JcB3D2-|
DJB/{c}B/A/B/d/{e}d/B/c/A2D-|DJA2{c}A/G/JA>{c}BA2|D2JBde/{fe}d/B/d/B/JB/G-|
{A}GE{DE}D2JB3/2{c}B/A2|JB3D2JB2A/B/ {c}d/c/B/c/A2D2JA2|{c}A/JA{c}B/~A3D2 JG|{e}dBG6:|

